X: 12347
T: Falling Leaves
R: jig
M: 6/8
K: Dmajor
B|:A2D F2D|FDF A2B|A2D d2F|EFG E2G|
A2D F2D|FDF A2d|f2a g2e|1 fdd d2B:|2 fdd d2f||
a2b afd|gbg faf|e2c ABA|GFE F2d|
a2b afd|gbg faf|e2F G2E|FDD D2d|
a2b afd|gbg faf|e2c ABA|GFE F2G|
A2D F2D|FDF A2d|f2a g2e|fdd d2B||

